X:53205
F:http://www.vwml.org/record/HAM/5/32/5
%%VWML:HAM-5-32-5-0
T:Broomfield Wager, The
S:Mrs Marina Russell, Upwey c1906 coll. HED Hammond O:England
A:Dorset
F:HAM-05-32-05.abc
N:Transcribed from HAM-02-227.gif
Z:EFDSS;PJHeadford 2010
M:C
L:1/8
Q:2/4=50
K:Eb
C2|FE FG A2G G|FG A2 C2F2|D2 B, B, E2D2|C6 F2|
w:It's of* a* knight in the North* count-ry, He court-ed a la-dy gay. As D>C B, D E E ((3CD E)|F G2 F E2 D2|\
w:they* were a-ri-ding in* the mer-ry green-wood, A\
M:3/4
(C2 c2) B2|(AG F2) C2|\
w:wa-*ger he** did\ M:C
F6 F2|
w:lay, As
D>B, B, B, E E D E|F G2 F E2 D2|(C2 c2) BA|CD E4|\
w:they* were a-ri-ding in the mer-ry green-wood, A wa-*ger* he* did\
M:C|
F6||
w:lay.
W:
W:Transcribed from HAM-02-227.gif
W:[In the tune MS, to the left of the title:] 500 [to the right:] Mrs Russell of Upwey W:[In the lyrics note-book, this:]
W:[on leaf opposite the words:] For more words see D VI p.122
W:[above the title line:] T.500
W:[title line:] Fragt. of Merry Broomfield [and on the right margin:] Russell
W:
W:Why hadn't thou awaked me, my little footboy
W:That I might have had my will
W:And all the little birds of the merry green field (or wood)
W:Of me should have had their fill
W:[the last two lines are paired by a large brace ({) on the left margin.]
